X:1
T:Title
%%score { ( 1 3 ) | ( 2 4 ) }
L:1/8
M:4/4
K:Ab
V:1 treble nm="Grand Piano"
V:3 treble 
V:2 bass 
V:4 bass 
V:1
 z4 z2[Q:1/4=106] E2 | E2 =E2 F2 G2 | A2 B2 c2 d2 | z2 e2 d2 z2 |[M:3/4] c2 B2 B2 |[M:1/4] E2 | %6
[M:4/4] F2 [EG]2 [EA]2 B2 | c2 c2 d2 =d2 | z4 e2 .e2 |[M:7/8] c2 B2 [CA]3 |] %10
V:2
 z4 z2 [A,C]2 | [A,C]2 [G,B,C]2 [F,A,C]2 [=E,B,C]2 | [F,A,C]2 [E,G,E]2[K:treble] [A,E]2 [A,B,E]2 | %3
 z4 .F2[K:bass] z2 |[M:3/4] [A,E]2 [F,A,=D]2 [E,G,E]2 |[M:1/4] [E,G,B,]2 | %6
[M:4/4] [=D,A,B,]2 [_D,B,]2 [C,A,]2 [E,G,E]2 | [A,E]2 [=A,E_G]2 [B,E=G]2 [_CFA]2 | %8
 z4 _G2[K:bass] z2 |[M:7/8] [E,A,E]2 [E,G,D]2 [A,,A,]3 |] %10
V:3
 x8 | x8 | x8 | e2 z F z =E d2 |[M:3/4] x6 |[M:1/4] x2 |[M:4/4] x8 | x8 | e2 e2 z A,F-[Fd] | %9
[M:7/8] x7 |] %10
V:4
 x8 | x8 | x4[K:treble] x4 | [A,CE]2 .[=A,CE]2 B,-[_A,B,][K:bass] [G,B,E]2 |[M:3/4] x6 | %5
[M:1/4] x2 |[M:4/4] x8 | x8 | [CEA]2 [B,DG]2 [A,C][K:bass]C, [D,A,]2 |[M:7/8] x7 |] %10

